X:1
T:I Ddn't Raise My Boy to be a Soldier
M:2/4
L:1/8
K:G
 D| G3 A| cB AG| B2 d2| G2 GA| B A2 G| E2 D2| G4-| G2 D2| G3 F| G2 B2|\
 d3 ^c| B2 B^c| d2 B2| B2 ^A2| B4-| B4| cd ed| B2 A2| GA BG| A3 A|\
 A^G A^A| B^c BA| d4-| d2 d2| ed ^cd| =cB ^AB| B4| A3 B| dc BA| dc BA|\
 d4-| d3 F| AG FG| AG F^E| F4| A3 ^A| B^c BA| FE FG| A4-| A3 d| ed ^cd|\
 =cB ^AB| B4| A3 B| dc BA| ^GA Bc| B4-| B3 B| cB cB| c3 B| BA BA| B3 c|\
 de dB| GA BG| A4| G2||
